X:1
T:Take Five
Q:1/4=60
C:Dave Brubeck
M:5/4
K:Ab
L:1/4
V:1
z2 z C/F/A/B/ |: =B/c/B/_B/ A C E | F5/2 G/4A/4G/4F/4 E | F5/2 E/4F/4E/4C/4 B, | C5/2 C/F/A/B/ |
=B/c/B/_B/ A C E | F5/2 E/4F/4E/4C/4 B, | C5/2 G/4A/4G/4F/4 E | F4 z | F/ A F/ D B,/C/D/=D/ |
E/ G E/ C A,/B,/=B,/C/ | D/ F D/  B, G,/A,/B,/=B,/ | C/=B,/C/D/ E E/=D/E/=E/ |
F/ A F/ D B,/C/D/=D/ | E/ G E/ C A,/B,/=B,/C/ | D/ F D/  B, G,/B,/E/D/ | C5/2 C/F/A/B/ :|
